static/assets/svg/human/humanClothes/shirt3_stickers/shirt3_sticker7.svg

<svg class="shirtOverlay" width="86" height="380" viewBox="202.715 584.407 86.593 380.048" xmlns="http://www.w3.org/2000/svg" xmlns:xlink="http://www.w3.org/1999/xlink"><defs><pattern id="a" width="20" height="20" patternUnits="userSpaceOnUse" viewBox="0 0 100 100"><path d="M274.84 692.01l64.955 556.888c-4.452-24.253-.87-48.506 1.516-72.759 9.921-10.823 23.304-16.455 41.306-15.158-42.085-14.262 96.474-619.794 83.969-650.49l-175.675 611.457c-4.939-15.746 119.671-594.505 121.485-614.11-.11-10.987 10.888-7.692 17.053-10.611-10.35-3.385-17.059-9.501-19.327-18.948-1.782 9.252-5.576 17.641-14.4 23.874.408-11.553-4.03-22.414 2.652-34.864l8.716-2.652c-24.665-19.949-23.085-46.897-34.106-70.485-4.283 24.082.573 48.818-16.295 72.001l9.853 4.926c2.83 11.365 8.389 20.966 4.169 30.316-11.871-3.867-17.506-11.475-24.632-18.19-.455 7.747 2.099 16.202-14.779 20.085 9.344 1.897-263.331-326.01-258.976-320.122 7.407 21.924 3.394 42.706 1.137 63.664-28.665-19.305 232.466 284.584 216.912 254.184-11.803 39.984-7.9 84.197-43.201 117.85 10.737-6.147 21.474-7.875 32.211-4.926 6.954 8.575 11.656 21.655 16.674 34.106-9.518-4.831-8.122 6.345-31.074-18.191-2.758 10.582-10.759 19.734-24.632 27.285 12.393-1.144 23.219-1.434 24.632 3.411l9.852 31.453.005.006z" transform="matrix(.0752 0 0 .0752 19.127 -3.175)"/><path d="M315.45 691.69l-4.244-62.167-90.22 558.404-4.245 61.955M244.075 1171.044h25.188v47.429h-27.6l2.412-47.429zM284.805 1176.674h29.208l-2.412 46.089h-25.724l-1.071-46.089h-.001zM300.28 607.14l-100.233 555.592L37.004 245.746s-5.94-11.593-11.215-11.22c-6.363.45-11.49 15.305-11.49 15.305L300.28 607.139v.001zM317.945 1121.834s2.632-9.291 6.389-9.285c4.815.007 8.15 11.926 8.15 11.926l-2.037 26.462-16.785-1.805 4.283-27.298zM370.11 516.44h9.647l-124.165 596.99H245.41l124.701-596.99h-.001zM388.33 519.66l-120.949 592.703 10.718-.536 119.877-597.526-9.646 5.359zM375.47 447.85l-1.608 19.293h17.149l-5.359-19.293H375.47z" fill="#ffd300" transform="matrix(.0752 0 0 .0752 19.127 -3.175)"/><g><path d="M274.84 692.01l64.955 556.888c-4.452-24.253-.87-48.506 1.516-72.759 9.921-10.823 23.304-16.455 41.306-15.158-42.085-14.262 96.474-619.794 83.969-650.49l-175.675 611.457c-4.939-15.746 119.671-594.505 121.485-614.11-.11-10.987 10.888-7.692 17.053-10.611-10.35-3.385-17.059-9.501-19.327-18.948-1.782 9.252-5.576 17.641-14.4 23.874.408-11.553-4.03-22.414 2.652-34.864l8.716-2.652c-24.665-19.949-23.085-46.897-34.106-70.485-4.283 24.082.573 48.818-16.295 72.001l9.853 4.926c2.83 11.365 8.389 20.966 4.169 30.316-11.871-3.867-17.506-11.475-24.632-18.19-.455 7.747 2.099 16.202-14.779 20.085 9.344 1.897-263.331-326.01-258.976-320.122 7.407 21.924 3.394 42.706 1.137 63.664-28.665-19.305 232.466 284.584 216.912 254.184-11.803 39.984-7.9 84.197-43.201 117.85 10.737-6.147 21.474-7.875 32.211-4.926 6.954 8.575 11.656 21.655 16.674 34.106-9.518-4.831-8.122 6.345-31.074-18.191-2.758 10.582-10.759 19.734-24.632 27.285 12.393-1.144 23.219-1.434 24.632 3.411l9.852 31.453.005.006z" transform="matrix(.0752 0 0 .0752 33.534 -19.04)"/><path d="M315.45 691.69l-4.244-62.167-90.22 558.404-4.245 61.955M244.075 1171.044h25.188v47.429h-27.6l2.412-47.429zM284.805 1176.674h29.208l-2.412 46.089h-25.724l-1.071-46.089h-.001zM300.28 607.14l-100.233 555.592L37.004 245.746s-5.94-11.593-11.215-11.22c-6.363.45-11.49 15.305-11.49 15.305L300.28 607.139v.001zM317.945 1121.834s2.632-9.291 6.389-9.285c4.815.007 8.15 11.926 8.15 11.926l-2.037 26.462-16.785-1.805 4.283-27.298zM370.11 516.44h9.647l-124.165 596.99H245.41l124.701-596.99h-.001zM388.33 519.66l-120.949 592.703 10.718-.536 119.877-597.526-9.646 5.359zM375.47 447.85l-1.608 19.293h17.149l-5.359-19.293H375.47z" fill="#ffd300" transform="matrix(.0752 0 0 .0752 33.534 -19.04)"/><path d="M274.84 692.01l64.955 556.888c-4.452-24.253-.87-48.506 1.516-72.759 9.921-10.823 23.304-16.455 41.306-15.158-42.085-14.262 96.474-619.794 83.969-650.49l-175.675 611.457c-4.939-15.746 119.671-594.505 121.485-614.11-.11-10.987 10.888-7.692 17.053-10.611-10.35-3.385-17.059-9.501-19.327-18.948-1.782 9.252-5.576 17.641-14.4 23.874.408-11.553-4.03-22.414 2.652-34.864l8.716-2.652c-24.665-19.949-23.085-46.897-34.106-70.485-4.283 24.082.573 48.818-16.295 72.001l9.853 4.926c2.83 11.365 8.389 20.966 4.169 30.316-11.871-3.867-17.506-11.475-24.632-18.19-.455 7.747 2.099 16.202-14.779 20.085 9.344 1.897-263.331-326.01-258.976-320.122 7.407 21.924 3.394 42.706 1.137 63.664-28.665-19.305 232.466 284.584 216.912 254.184-11.803 39.984-7.9 84.197-43.201 117.85 10.737-6.147 21.474-7.875 32.211-4.926 6.954 8.575 11.656 21.655 16.674 34.106-9.518-4.831-8.122 6.345-31.074-18.191-2.758 10.582-10.759 19.734-24.632 27.285 12.393-1.144 23.219-1.434 24.632 3.411l9.852 31.453.005.006z" transform="matrix(.0752 0 0 .0752 52.925 -.77)"/><path d="M315.45 691.69l-4.244-62.167-90.22 558.404-4.245 61.955M244.075 1171.044h25.188v47.429h-27.6l2.412-47.429zM284.805 1176.674h29.208l-2.412 46.089h-25.724l-1.071-46.089h-.001zM300.28 607.14l-100.233 555.592L37.004 245.746s-5.94-11.593-11.215-11.22c-6.363.45-11.49 15.305-11.49 15.305L300.28 607.139v.001zM317.945 1121.834s2.632-9.291 6.389-9.285c4.815.007 8.15 11.926 8.15 11.926l-2.037 26.462-16.785-1.805 4.283-27.298zM370.11 516.44h9.647l-124.165 596.99H245.41l124.701-596.99h-.001zM388.33 519.66l-120.949 592.703 10.718-.536 119.877-597.526-9.646 5.359zM375.47 447.85l-1.608 19.293h17.149l-5.359-19.293H375.47z" fill="#ffd300" transform="matrix(.0752 0 0 .0752 52.925 -.77)"/><g><path d="M274.84 692.01l64.955 556.888c-4.452-24.253-.87-48.506 1.516-72.759 9.921-10.823 23.304-16.455 41.306-15.158-42.085-14.262 96.474-619.794 83.969-650.49l-175.675 611.457c-4.939-15.746 119.671-594.505 121.485-614.11-.11-10.987 10.888-7.692 17.053-10.611-10.35-3.385-17.059-9.501-19.327-18.948-1.782 9.252-5.576 17.641-14.4 23.874.408-11.553-4.03-22.414 2.652-34.864l8.716-2.652c-24.665-19.949-23.085-46.897-34.106-70.485-4.283 24.082.573 48.818-16.295 72.001l9.853 4.926c2.83 11.365 8.389 20.966 4.169 30.316-11.871-3.867-17.506-11.475-24.632-18.19-.455 7.747 2.099 16.202-14.779 20.085 9.344 1.897-263.331-326.01-258.976-320.122 7.407 21.924 3.394 42.706 1.137 63.664-28.665-19.305 232.466 284.584 216.912 254.184-11.803 39.984-7.9 84.197-43.201 117.85 10.737-6.147 21.474-7.875 32.211-4.926 6.954 8.575 11.656 21.655 16.674 34.106-9.518-4.831-8.122 6.345-31.074-18.191-2.758 10.582-10.759 19.734-24.632 27.285 12.393-1.144 23.219-1.434 24.632 3.411l9.852 31.453.005.006z" transform="matrix(.0752 0 0 .0752 -.44 -.29)"/><path d="M315.45 691.69l-4.244-62.167-90.22 558.404-4.245 61.955M244.075 1171.044h25.188v47.429h-27.6l2.412-47.429zM284.805 1176.674h29.208l-2.412 46.089h-25.724l-1.071-46.089h-.001zM300.28 607.14l-100.233 555.592L37.004 245.746s-5.94-11.593-11.215-11.22c-6.363.45-11.49 15.305-11.49 15.305L300.28 607.139v.001zM317.945 1121.834s2.632-9.291 6.389-9.285c4.815.007 8.15 11.926 8.15 11.926l-2.037 26.462-16.785-1.805 4.283-27.298zM370.11 516.44h9.647l-124.165 596.99H245.41l124.701-596.99h-.001zM388.33 519.66l-120.949 592.703 10.718-.536 119.877-597.526-9.646 5.359zM375.47 447.85l-1.608 19.293h17.149l-5.359-19.293H375.47z" fill="#ffd300" transform="matrix(.0752 0 0 .0752 -.44 -.29)"/></g></g></pattern><pattern id="b" patternTransform="matrix(.54054 -.9781 2.21056 1.22165 198.189 738.628)" xlink:href="#a"/></defs><path class="shirtOverlay" fill="none" d="M202.715 584.431h86.593V700.24h-86.593z"/><path class="ties" fill="url(#b)" d="M243.197 661.307l-9.622 42.613 13.058 37.115h.688l13.746-36.428-9.623-43.3z"/></svg>

<svg class="shirtOverlay" width="86" height="380" viewBox="202.715 584.407 86.5933 380.048" preserveAspectRatio="xMidYMid meet" xmlns="http://www.w3.org/2000/svg" xmlns:xlink="http://www.w3.org/1999/xlink">
  <defs id="svgEditorDefs">
    <path id="svgEditorClosePathDefs" fill="moccasin" style="stroke-width: 0px; stroke: none; fill-opacity: 1;" class="shirtOverlay"/>
    <pattern id="pattern-0" x="0" y="0" width="20" height="20" patternUnits="userSpaceOnUse" viewBox="0 0 100 100">
      <g transform="matrix(0.07519140740706458, 0, 0, 0.07519140740706458, 37.199520111083984, 26.462002538736044)">
        <g id="layer1" transform="translate(-240.36 -394.15)">
          <g id="g3622">
            <path id="path2830" style="fill:#000000" d="M 274.84 692.01 L 339.795 1248.898 C 335.343 1224.645 338.925 1200.392 341.311 1176.139 C 351.232 1165.316 364.615 1159.684 382.617 1160.981 C 340.532 1146.719 479.091 541.187 466.586 510.491 L 290.911 1121.948 C 285.972 1106.202 410.582 527.443 412.396 507.838 C 412.286 496.851 423.284 500.146 429.449 497.227 C 419.099 493.842 412.39 487.726 410.122 478.279 C 408.34 487.531 404.546 495.92 395.722 502.153 C 396.13 490.6 391.692 479.739 398.374 467.289 L 407.09 464.637 C 382.425 444.688 384.005 417.74 372.984 394.152 C 368.701 418.234 373.557 442.97 356.689 466.153 L 366.542 471.079 C 369.372 482.444 374.931 492.045 370.711 501.395 C 358.84 497.528 353.205 489.92 346.079 483.205 C 345.624 490.952 348.178 499.407 331.3 503.29 C 340.644 505.187 67.969 177.28 72.324 183.168 C 79.731 205.092 75.718 225.874 73.461 246.832 C 44.796 227.527 305.927 531.416 290.373 501.016 C 278.57 541 282.473 585.213 247.172 618.866 C 257.909 612.719 268.646 610.991 279.383 613.94 C 286.337 622.515 291.039 635.595 296.057 648.046 C 286.539 643.215 287.935 654.391 264.983 629.855 C 262.225 640.437 254.224 649.589 240.351 657.14 C 252.744 655.996 263.57 655.706 264.983 660.551 L 274.835 692.004 L 274.84 692.01 Z"/>
            <path id="path3604" style="fill:#ffd300" d="M 315.45 691.69 L 311.206 629.523 L 220.986 1187.927 L 216.741 1249.882"/>
            <path id="path3606" style="fill:#ffd300" d="M 244.075 1171.044 L 269.263 1171.044 L 269.263 1218.473 L 241.663 1218.473 L 244.075 1171.044 L 244.075 1171.044 Z"/>
            <path id="path3608" style="fill:#ffd300" d="M 284.805 1176.674 L 314.013 1176.674 L 311.601 1222.763 L 285.877 1222.763 L 284.806 1176.674 L 284.805 1176.674 Z"/>
            <path id="path3610" style="fill:#ffd300" d="M 300.28 607.14 L 200.047 1162.732 L 37.004 245.746 C 37.004 245.746 31.064 234.153 25.789 234.526 C 19.426 234.976 14.299 249.831 14.299 249.831 L 300.28 607.139 L 300.28 607.14 Z"/>
            <path id="path3612" style="fill:#ffd300" d="M 317.945 1121.834 C 317.945 1121.834 320.577 1112.543 324.334 1112.549 C 329.149 1112.556 332.484 1124.475 332.484 1124.475 L 330.447 1150.937 L 313.662 1149.132 L 317.945 1121.834 L 317.945 1121.834 Z"/>
            <path id="path3614" style="fill:#ffd300" d="M 370.11 516.44 L 379.757 516.44 L 255.592 1113.43 L 245.41 1113.43 L 370.111 516.44 L 370.11 516.44 Z"/>
            <path id="path3616" style="fill:#ffd300" d="M 388.33 519.66 L 267.381 1112.363 L 278.099 1111.827 L 397.976 514.301 L 388.33 519.66 L 388.33 519.66 Z"/>
            <path id="path3618" style="fill:#ffd300" d="M 375.47 447.85 L 373.862 467.143 L 391.011 467.143 L 385.652 447.85 L 375.47 447.85 Z"/>
          </g>
        </g>
      </g>
      <g transform="matrix(0.0751914530992508, 0, 0, 0.0751914530992508, 51.60699887425393, 10.59690759615675)">
        <g id="g-1" transform="translate(-240.36 -394.15)">
          <g id="g-2">
            <path id="path-1" style="fill:#000000" d="M 274.84 692.01 L 339.795 1248.898 C 335.343 1224.645 338.925 1200.392 341.311 1176.139 C 351.232 1165.316 364.615 1159.684 382.617 1160.981 C 340.532 1146.719 479.091 541.187 466.586 510.491 L 290.911 1121.948 C 285.972 1106.202 410.582 527.443 412.396 507.838 C 412.286 496.851 423.284 500.146 429.449 497.227 C 419.099 493.842 412.39 487.726 410.122 478.279 C 408.34 487.531 404.546 495.92 395.722 502.153 C 396.13 490.6 391.692 479.739 398.374 467.289 L 407.09 464.637 C 382.425 444.688 384.005 417.74 372.984 394.152 C 368.701 418.234 373.557 442.97 356.689 466.153 L 366.542 471.079 C 369.372 482.444 374.931 492.045 370.711 501.395 C 358.84 497.528 353.205 489.92 346.079 483.205 C 345.624 490.952 348.178 499.407 331.3 503.29 C 340.644 505.187 67.969 177.28 72.324 183.168 C 79.731 205.092 75.718 225.874 73.461 246.832 C 44.796 227.527 305.927 531.416 290.373 501.016 C 278.57 541 282.473 585.213 247.172 618.866 C 257.909 612.719 268.646 610.991 279.383 613.94 C 286.337 622.515 291.039 635.595 296.057 648.046 C 286.539 643.215 287.935 654.391 264.983 629.855 C 262.225 640.437 254.224 649.589 240.351 657.14 C 252.744 655.996 263.57 655.706 264.983 660.551 L 274.835 692.004 L 274.84 692.01 Z"/>
            <path id="path-2" style="fill:#ffd300" d="M 315.45 691.69 L 311.206 629.523 L 220.986 1187.927 L 216.741 1249.882"/>
            <path id="path-3" style="fill:#ffd300" d="M 244.075 1171.044 L 269.263 1171.044 L 269.263 1218.473 L 241.663 1218.473 L 244.075 1171.044 L 244.075 1171.044 Z"/>
            <path id="path-4" style="fill:#ffd300" d="M 284.805 1176.674 L 314.013 1176.674 L 311.601 1222.763 L 285.877 1222.763 L 284.806 1176.674 L 284.805 1176.674 Z"/>
            <path id="path-5" style="fill:#ffd300" d="M 300.28 607.14 L 200.047 1162.732 L 37.004 245.746 C 37.004 245.746 31.064 234.153 25.789 234.526 C 19.426 234.976 14.299 249.831 14.299 249.831 L 300.28 607.139 L 300.28 607.14 Z"/>
            <path id="path-6" style="fill:#ffd300" d="M 317.945 1121.834 C 317.945 1121.834 320.577 1112.543 324.334 1112.549 C 329.149 1112.556 332.484 1124.475 332.484 1124.475 L 330.447 1150.937 L 313.662 1149.132 L 317.945 1121.834 L 317.945 1121.834 Z"/>
            <path id="path-7" style="fill:#ffd300" d="M 370.11 516.44 L 379.757 516.44 L 255.592 1113.43 L 245.41 1113.43 L 370.111 516.44 L 370.11 516.44 Z"/>
            <path id="path-8" style="fill:#ffd300" d="M 388.33 519.66 L 267.381 1112.363 L 278.099 1111.827 L 397.976 514.301 L 388.33 519.66 L 388.33 519.66 Z"/>
            <path id="path-9" style="fill:#ffd300" d="M 375.47 447.85 L 373.862 467.143 L 391.011 467.143 L 385.652 447.85 L 375.47 447.85 Z"/>
            <g transform="matrix(0.9999995827674866, 0, 0, 0.9999995827674866, 498.2486598505393, 637.1195377762099)">
              <g id="g-3" transform="translate(-240.36 -394.15)">
                <g id="g-4">
                  <path id="path-10" style="fill:#000000" d="M 274.84 692.01 L 339.795 1248.898 C 335.343 1224.645 338.925 1200.392 341.311 1176.139 C 351.232 1165.316 364.615 1159.684 382.617 1160.981 C 340.532 1146.719 479.091 541.187 466.586 510.491 L 290.911 1121.948 C 285.972 1106.202 410.582 527.443 412.396 507.838 C 412.286 496.851 423.284 500.146 429.449 497.227 C 419.099 493.842 412.39 487.726 410.122 478.279 C 408.34 487.531 404.546 495.92 395.722 502.153 C 396.13 490.6 391.692 479.739 398.374 467.289 L 407.09 464.637 C 382.425 444.688 384.005 417.74 372.984 394.152 C 368.701 418.234 373.557 442.97 356.689 466.153 L 366.542 471.079 C 369.372 482.444 374.931 492.045 370.711 501.395 C 358.84 497.528 353.205 489.92 346.079 483.205 C 345.624 490.952 348.178 499.407 331.3 503.29 C 340.644 505.187 67.969 177.28 72.324 183.168 C 79.731 205.092 75.718 225.874 73.461 246.832 C 44.796 227.527 305.927 531.416 290.373 501.016 C 278.57 541 282.473 585.213 247.172 618.866 C 257.909 612.719 268.646 610.991 279.383 613.94 C 286.337 622.515 291.039 635.595 296.057 648.046 C 286.539 643.215 287.935 654.391 264.983 629.855 C 262.225 640.437 254.224 649.589 240.351 657.14 C 252.744 655.996 263.57 655.706 264.983 660.551 L 274.835 692.004 L 274.84 692.01 Z"/>
                  <path id="path-11" style="fill:#ffd300" d="M 315.45 691.69 L 311.206 629.523 L 220.986 1187.927 L 216.741 1249.882"/>
                  <path id="path-12" style="fill:#ffd300" d="M 244.075 1171.044 L 269.263 1171.044 L 269.263 1218.473 L 241.663 1218.473 L 244.075 1171.044 L 244.075 1171.044 Z"/>
                  <path id="path-13" style="fill:#ffd300" d="M 284.805 1176.674 L 314.013 1176.674 L 311.601 1222.763 L 285.877 1222.763 L 284.806 1176.674 L 284.805 1176.674 Z"/>
                  <path id="path-14" style="fill:#ffd300" d="M 300.28 607.14 L 200.047 1162.732 L 37.004 245.746 C 37.004 245.746 31.064 234.153 25.789 234.526 C 19.426 234.976 14.299 249.831 14.299 249.831 L 300.28 607.139 L 300.28 607.14 Z"/>
                  <path id="path-15" style="fill:#ffd300" d="M 317.945 1121.834 C 317.945 1121.834 320.577 1112.543 324.334 1112.549 C 329.149 1112.556 332.484 1124.475 332.484 1124.475 L 330.447 1150.937 L 313.662 1149.132 L 317.945 1121.834 L 317.945 1121.834 Z"/>
                  <path id="path-16" style="fill:#ffd300" d="M 370.11 516.44 L 379.757 516.44 L 255.592 1113.43 L 245.41 1113.43 L 370.111 516.44 L 370.11 516.44 Z"/>
                  <path id="path-17" style="fill:#ffd300" d="M 388.33 519.66 L 267.381 1112.363 L 278.099 1111.827 L 397.976 514.301 L 388.33 519.66 L 388.33 519.66 Z"/>
                  <path id="path-18" style="fill:#ffd300" d="M 375.47 447.85 L 373.862 467.143 L 391.011 467.143 L 385.652 447.85 L 375.47 447.85 Z"/>
                </g>
              </g>
            </g>
            <g transform="matrix(0.999999, 0, 0, 0.999999, -211.477982, 643.513428)">
              <g id="g-5" transform="translate(-240.36 -394.15)">
                <g id="g-6">
                  <path id="path-19" style="fill:#000000" d="M 274.84 692.01 L 339.795 1248.898 C 335.343 1224.645 338.925 1200.392 341.311 1176.139 C 351.232 1165.316 364.615 1159.684 382.617 1160.981 C 340.532 1146.719 479.091 541.187 466.586 510.491 L 290.911 1121.948 C 285.972 1106.202 410.582 527.443 412.396 507.838 C 412.286 496.851 423.284 500.146 429.449 497.227 C 419.099 493.842 412.39 487.726 410.122 478.279 C 408.34 487.531 404.546 495.92 395.722 502.153 C 396.13 490.6 391.692 479.739 398.374 467.289 L 407.09 464.637 C 382.425 444.688 384.005 417.74 372.984 394.152 C 368.701 418.234 373.557 442.97 356.689 466.153 L 366.542 471.079 C 369.372 482.444 374.931 492.045 370.711 501.395 C 358.84 497.528 353.205 489.92 346.079 483.205 C 345.624 490.952 348.178 499.407 331.3 503.29 C 340.644 505.187 67.969 177.28 72.324 183.168 C 79.731 205.092 75.718 225.874 73.461 246.832 C 44.796 227.527 305.927 531.416 290.373 501.016 C 278.57 541 282.473 585.213 247.172 618.866 C 257.909 612.719 268.646 610.991 279.383 613.94 C 286.337 622.515 291.039 635.595 296.057 648.046 C 286.539 643.215 287.935 654.391 264.983 629.855 C 262.225 640.437 254.224 649.589 240.351 657.14 C 252.744 655.996 263.57 655.706 264.983 660.551 L 274.835 692.004 L 274.84 692.01 Z"/>
                  <path id="path-20" style="fill:#ffd300" d="M 315.45 691.69 L 311.206 629.523 L 220.986 1187.927 L 216.741 1249.882"/>
                  <path id="path-21" style="fill:#ffd300" d="M 244.075 1171.044 L 269.263 1171.044 L 269.263 1218.473 L 241.663 1218.473 L 244.075 1171.044 L 244.075 1171.044 Z"/>
                  <path id="path-22" style="fill:#ffd300" d="M 284.805 1176.674 L 314.013 1176.674 L 311.601 1222.763 L 285.877 1222.763 L 284.806 1176.674 L 284.805 1176.674 Z"/>
                  <path id="path-23" style="fill:#ffd300" d="M 300.28 607.14 L 200.047 1162.732 L 37.004 245.746 C 37.004 245.746 31.064 234.153 25.789 234.526 C 19.426 234.976 14.299 249.831 14.299 249.831 L 300.28 607.139 L 300.28 607.14 Z"/>
                  <path id="path-24" style="fill:#ffd300" d="M 317.945 1121.834 C 317.945 1121.834 320.577 1112.543 324.334 1112.549 C 329.149 1112.556 332.484 1124.475 332.484 1124.475 L 330.447 1150.937 L 313.662 1149.132 L 317.945 1121.834 L 317.945 1121.834 Z"/>
                  <path id="path-25" style="fill:#ffd300" d="M 370.11 516.44 L 379.757 516.44 L 255.592 1113.43 L 245.41 1113.43 L 370.111 516.44 L 370.11 516.44 Z"/>
                  <path id="path-26" style="fill:#ffd300" d="M 388.33 519.66 L 267.381 1112.363 L 278.099 1111.827 L 397.976 514.301 L 388.33 519.66 L 388.33 519.66 Z"/>
                  <path id="path-27" style="fill:#ffd300" d="M 375.47 447.85 L 373.862 467.143 L 391.011 467.143 L 385.652 447.85 L 375.47 447.85 Z"/>
                </g>
              </g>
            </g>
          </g>
        </g>
      </g>
    </pattern>
    <pattern id="pattern-0-1" patternTransform="matrix(0.540537, -0.978097, 2.21056, 1.221648, 198.18869, 738.628357)" xlink:href="#pattern-0"/>
  </defs>
  <rect id="svgEditorBackground" x="202.71499633789062" y="584.4310302734375" width="86.59329986572266" height="115.80899810791016" style="fill: none; stroke: none;" class="shirtOverlay"/>
  <polygon id="e3_polygon" style="stroke-width: 0px; stroke: none; fill: url(#pattern-0-1);" points="243.197 661.307 233.575 703.92 246.633 741.035 247.321 741.035 261.067 704.607 251.444 661.307" class="ties"/>
</svg>
